public/avatar/shoe/165.svg

<svg xmlns:xlink="http://www.w3.org/1999/xlink" height="38.3" width="36.05" xmlns="http://www.w3.org/2000/svg"><use height="19.15" transform="translate(11.6 9.55)" width="20.6" xlink:href="#a"/><defs><g id="a" fill-rule="evenodd"><path d="M-4.2-4.7q2.7-.85 4.35-.5 4.7 1.15 5.15 1.6l1.55.05q.55-.2 1.15.35.55.5.35 1.25-.25 1.1-1.6 3.45-1 1.65-.7 2.05l.8 2q.45 1.5.25 1.9-.25.5.3 1.35-1 3.5-1.5 3.65-5.1 1.7-10.8 1.3-7.1-.5-7.25-2.2-.2-2.55.4-2.85l.55-.3q.5-2.1 1.1-2.7 1.9-1.9.95-3.05-.55-.85-.95-2.7-.4-2.2.45-2.7Q-7.4-4-6.6-3.7l2.4-1" fill="#020000" transform="translate(12.2 5.3)"/><path d="M5.4 11.9Q2.25 13.3-3.5 13q-7.4-.45-7.9-1.45-.35-.75-.25-1.6l.5-.95.9-.05q10.1 3.8 16.05-.7.6-.5.95.45l-.35 1.55q-.4 1.3-1 1.65" fill="#e0d3d1" transform="translate(12.2 5.3)"/><path d="M5.3 12.05q-2.9 1.6-9 1.2-7.45-.55-7.9-1.45-.9-2.05.25-2.55.2-.05-.25.7-.25.85.65 1.35 2.05 1.25 6.85 1.35 5.85.1 10-2.2.5-.25.65-1.5l-.3 1.55q-.45 1.3-.95 1.55" fill="#aa9d9b" transform="translate(12.2 5.3)"/><path d="m.35-4.5 2.3.5 3 1.05.6.15.4.1H6.5l.25.1-1.4.9q-1.05.6-3.3.85l-6-.4q-1.45-.3-2.2-1.05L-6.9-3l2.2-1.05 1.3-.4 1.25-.15 2.5.1" fill="#ba2508" transform="translate(12.2 5.3)"/><path d="m7.05-2.1.1.05-.55.5L5.15-.5Q3.8.5 1.15 1l-2.6.2L-3.9.9Q-5.65.4-6.4-.85L-6.6-2l.65-.85 1-.7L-3.9-4l2.5-.25 1.25.05 1.3.15 2.2.7 2.45.85q1 .7 1.25.4" fill="#961504" transform="translate(12.2 5.3)"/><path d="m-.65-1.6 4.8-.4q2.15-1.3 3-.7 1.4 1-.5 3.2-2 2.2-1.25 3.5 1.65 2.7.7 4.55Q5 10.8.65 11.15H-1.5l-5.9-.35q-3.1-.3-3.2-1.35-.15-1.95 1.35-3.9Q-7.7 3.45-8.2 2.3L-8.95.15q-.5-1.9-.05-2.35 1.5-1.85 2.8-.85Q-4.35-1.6-.65-1.6" fill="#ba2508" transform="translate(12.2 5.3)"/><path d="m3.65-3.2-.05-.1.3.05 1.5.55.25.2-.75.65q-.85.5-2.6.6l-4.75-.1q-1.65-.15-2.95-.6l-.75-.5q-.2-.3.15-.5l.8-.6L-4.1-4l1.25-.25 1.25-.05-1.1.1q-.5.15-.5.65.05.3.7.45l1.55.1H.5l1 .05 1.05.2.7.15q.3 0 .4-.35v-.25" fill="#770b03" transform="translate(12.2 5.3)"/><path d="M.85-1.2H.9L.4-1l-.55.2H-.5l-.65.05-1-.05L-4-1.2q-.75-.15-1.5-.6-.6-.25-.65-.65-.25-.6.95-1.25 1-.4 1.7-.4l-1.1.75q-.25.5-.1.65l.55.4q.9.35 2.15.55l2.85.55" fill="#5e0503" transform="translate(12.2 5.3)"/><path d="m-4.2-1.8 3-.5q3-.4 3.85.5.2.2-.5 1.85-1 1.95-.85 5.5 0 1.5-.45.9l-3.35-.3-3.2.1q-.25-.05.5-1.3l1-6.75" fill="#b27d08" transform="translate(12.2 5.3)"/><path d="M2.4.7.75.5l-4.5-.2L-5.6.2q-.35-.7 1.45-1.3 2.2-.6 6.2.1Q3.6-.7 2.4.7" fill="#dbca9a" transform="translate(12.2 5.3)"/><path d="m1.15 2.7-4.4-.2q-2.35.8-2.7.45l-.05-.7.35-.75q3.5-1.3 7.5.05 1.4.7.55 1.1l-1.25.05m1 2.25q-.4.5-2.55 0l-4.55.3q-1.2.5-1.45-.25-.3-1.2.65-1.3 6.3-.5 6.9 0 1.45.75 1 1.25" fill="#dbca9a" transform="translate(12.2 5.3)"/><path d="m4.3-.55.1.55-.3.5-.7.5-.75.15q-.25 0 0-.4l.5-.5.2-.45-.5-.75L3-1.1h.1l.65.15.55.4M2.65 1.5l.45-.05.7.05q.5.15.35.65l-.1.55-.5.55-.7.15-.6-.15q.4-.25.55-.35l.5-.6-.25-.5-.25-.1-.15-.2m-.3 4q.7-.25.7-.7l-.55-.55q-.2-.2.05-.3l.05-.05 1.25.25q.4.3.25.65-.25.7-.7.9-.6.5-1.3.3l-.35-.3.6-.2m-8.3-6.2-.2.7.4.5.5.25-.15.2-.25.05-.75-.05-.75-.4-.2-.6.2-.4.3-.3.75-.35h.7l-.25.1-.3.3m-.15 2.15-.3.1-.2.45-.05.45.15.35.25.25.1.2-.2.15q-.55 0-.85-.35l-.3-.75.15-.5.4-.3.6-.2h.25q.35 0 .1.15h-.1M-7.95 4.3q.45-.55 1-.55h.25l.1.05-.5.35-.3.55q-.2.45.55.75h.35l.25.1-.2.2-.8.2q-.65 0-.85-.4L-8.2 5l.25-.7" fill="#020000" transform="translate(12.2 5.3)"/><path d="M2.35-.2 2 .2 1.3 0 .6-.35l-.7-.2q-.5-.25 0-.4l1.25.1q1 0 1.2.35.2.2 0 .3M.5 1.5l.9.3q.45.15.65.4v.05l-.5.05-1.4-.4-1.35-.15-.4-.3.4-.05h.55l1.15.1M.15 3.65l.85.3.8.6h.05l-.7.1-.4-.15-.25-.1L-.6 4l-1.15-.2-.15-.1h-.05l1.05-.15 1.05.1m2.1 7.85-1.6.25h-1.8l-.6.05-.65-.05-.3.05-.3-.05h-.6l-1.65-.45H-.9l2.65-.1.75.05-.25.25" fill="#fff" transform="translate(12.2 5.3)"/><path d="m7-.75-.6 1-.8.55L4.55.45l.25-.4v-.5l-.15-.4-.3-.4h.05q.6 0 1.4-.7 1.1-.9 1.35 0L7-.75m-14.65.3-.6.4-.45-1.15.05-.65.45-.6.6-.3h.85l.05.4.25.5.2.1q.35.2-.35.4l-.6.3-.3.3-.15.3" fill="#f4a506" transform="translate(12.2 5.3)"/><path d="m2.75 9.2-.2.3v-.35l-.2-.45L1.8 8Q1.25 7.3.25 6.95l-2-.3-2.9-.1-2.45.4-.85.5-.8.6V7.9l.1-.2.3-.3.75-.5 1.75-.7 2.1-.2 2.15-.1 1.85.3.65.2.65.4q.7.45 1.25 1.4l.1.7-.15.3" fill="#961504" transform="translate(12.2 5.3)"/><path d="M1.3 8.55q0 1.1-2.5 1.1l-2.15-.25-1.1-.65-.25-.55q0-.4.3-.55.9-.85 1.2-.5l.45-.1h.6l1.3.15 1.65.6q.5.35.5.75" fill="#d62c16" transform="translate(12.2 5.3)"/><path d="M.4 8.5Q.1 9-.85 9q-1.65 0-2-.75l.9-.8V7.4q1.3.05 2.1.5.45.3.25.6" fill="#ed473a" transform="translate(12.2 5.3)"/></g></defs></svg>

<?xml version="1.0" encoding="UTF-8" standalone="no"?>
<svg xmlns:xlink="http://www.w3.org/1999/xlink" height="38.3px" width="36.05px" xmlns="http://www.w3.org/2000/svg">
  <g transform="matrix(1.0, 0.0, 0.0, 1.0, 23.8, 14.85)">
    <use height="19.15" transform="matrix(1.0, 0.0, 0.0, 1.0, -12.2, -5.3)" width="20.6" xlink:href="#shape0"/>
  </g>
  <defs>
    <g id="shape0" transform="matrix(1.0, 0.0, 0.0, 1.0, 12.2, 5.3)">
      <path d="M-4.2 -4.7 Q-1.5 -5.55 0.15 -5.2 4.85 -4.05 5.3 -3.6 L6.85 -3.55 Q7.4 -3.75 8.0 -3.2 8.55 -2.7 8.35 -1.95 8.1 -0.85 6.75 1.5 5.75 3.15 6.05 3.55 L6.85 5.55 Q7.3 7.05 7.1 7.45 6.85 7.95 7.4 8.8 6.4 12.3 5.9 12.45 0.8 14.15 -4.9 13.75 -12.0 13.25 -12.15 11.55 -12.35 9.0 -11.75 8.7 L-11.2 8.4 Q-10.7 6.3 -10.1 5.7 -8.2 3.8 -9.15 2.65 -9.7 1.8 -10.1 -0.05 -10.5 -2.25 -9.65 -2.75 -7.4 -4.0 -6.6 -3.7 L-4.2 -4.7" fill="#020000" fill-rule="evenodd" stroke="none"/>
      <path d="M5.4 11.9 Q2.25 13.3 -3.5 13.0 -10.9 12.55 -11.4 11.55 -11.75 10.8 -11.65 9.95 L-11.15 9.0 -10.25 8.95 Q-0.15 12.75 5.8 8.25 6.4 7.75 6.75 8.7 L6.4 10.25 Q6.0 11.55 5.4 11.9" fill="#e0d3d1" fill-rule="evenodd" stroke="none"/>
      <path d="M5.3 12.05 Q2.4 13.65 -3.7 13.25 -11.15 12.7 -11.6 11.8 -12.5 9.75 -11.35 9.25 -11.15 9.2 -11.6 9.95 -11.85 10.8 -10.95 11.3 -8.9 12.55 -4.1 12.65 1.75 12.75 5.9 10.45 6.4 10.2 6.55 8.95 L6.25 10.5 Q5.8 11.8 5.3 12.05" fill="#aa9d9b" fill-rule="evenodd" stroke="none"/>
      <path d="M0.35 -4.5 L2.65 -4.0 5.65 -2.95 6.25 -2.8 6.65 -2.7 6.5 -2.7 6.75 -2.6 5.35 -1.7 Q4.3 -1.1 2.05 -0.85 L-3.95 -1.25 Q-5.4 -1.55 -6.15 -2.3 L-6.9 -3.0 -4.7 -4.05 -3.4 -4.45 -2.15 -4.6 0.35 -4.5" fill="#ba2508" fill-rule="evenodd" stroke="none"/>
      <path d="M7.05 -2.1 L7.15 -2.05 6.6 -1.55 5.15 -0.5 Q3.8 0.5 1.15 1.0 L-1.45 1.2 -3.9 0.9 Q-5.65 0.4 -6.4 -0.85 L-6.6 -2.0 -5.95 -2.85 -4.95 -3.55 -3.9 -4.0 -1.4 -4.25 -0.15 -4.2 1.15 -4.05 3.35 -3.35 5.8 -2.5 Q6.8 -1.8 7.05 -2.1" fill="#961504" fill-rule="evenodd" stroke="none"/>
      <path d="M-0.65 -1.6 L4.15 -2.0 Q6.3 -3.3 7.15 -2.7 8.55 -1.7 6.65 0.5 4.65 2.7 5.4 4.0 7.05 6.7 6.1 8.55 5.0 10.8 0.65 11.15 L-1.5 11.15 -7.4 10.8 Q-10.5 10.5 -10.6 9.45 -10.75 7.5 -9.25 5.55 -7.7 3.45 -8.2 2.3 L-8.95 0.15 Q-9.45 -1.75 -9.0 -2.2 -7.5 -4.05 -6.2 -3.05 -4.35 -1.6 -0.65 -1.6" fill="#ba2508" fill-rule="evenodd" stroke="none"/>
      <path d="M3.65 -3.2 L3.6 -3.3 3.9 -3.25 5.4 -2.7 5.65 -2.5 4.9 -1.85 Q4.05 -1.35 2.3 -1.25 L-2.45 -1.35 Q-4.1 -1.5 -5.4 -1.95 L-6.15 -2.45 Q-6.35 -2.75 -6.0 -2.95 L-5.2 -3.55 -4.1 -4.0 -2.85 -4.25 -1.6 -4.3 -2.7 -4.2 Q-3.2 -4.05 -3.2 -3.55 -3.15 -3.25 -2.5 -3.1 L-0.95 -3.0 0.5 -3.0 1.5 -2.95 2.55 -2.75 3.25 -2.6 Q3.55 -2.6 3.65 -2.95 L3.65 -3.2" fill="#770b03" fill-rule="evenodd" stroke="none"/>
      <path d="M0.85 -1.2 L0.9 -1.2 0.4 -1.0 -0.15 -0.8 -0.5 -0.8 -1.15 -0.75 -2.15 -0.8 -4.0 -1.2 Q-4.75 -1.35 -5.5 -1.8 -6.1 -2.05 -6.15 -2.45 -6.4 -3.05 -5.2 -3.7 -4.2 -4.1 -3.5 -4.1 L-4.6 -3.35 Q-4.85 -2.85 -4.7 -2.7 L-4.15 -2.3 Q-3.25 -1.95 -2.0 -1.75 L0.85 -1.2" fill="#5e0503" fill-rule="evenodd" stroke="none"/>
      <path d="M-4.2 -1.8 L-1.2 -2.3 Q1.8 -2.7 2.65 -1.8 2.85 -1.6 2.15 0.05 1.15 2.0 1.3 5.55 1.3 7.05 0.85 6.45 L-2.5 6.15 -5.7 6.25 Q-5.95 6.2 -5.2 4.95 L-4.2 -1.8" fill="#b27d08" fill-rule="evenodd" stroke="none"/>
      <path d="M2.4 0.7 L0.75 0.5 -3.75 0.3 -5.6 0.2 Q-5.95 -0.5 -4.15 -1.1 -1.95 -1.7 2.05 -1.0 3.6 -0.7 2.4 0.7" fill="#dbca9a" fill-rule="evenodd" stroke="none"/>
      <path d="M1.15 2.7 L-3.25 2.5 Q-5.6 3.3 -5.95 2.95 L-6.0 2.25 -5.65 1.5 Q-2.15 0.2 1.85 1.55 3.25 2.25 2.4 2.65 L1.15 2.7" fill="#dbca9a" fill-rule="evenodd" stroke="none"/>
      <path d="M2.15 4.95 Q1.75 5.45 -0.4 4.95 L-4.95 5.25 Q-6.15 5.75 -6.4 5.0 -6.7 3.8 -5.75 3.7 0.55 3.2 1.15 3.7 2.6 4.45 2.15 4.95" fill="#dbca9a" fill-rule="evenodd" stroke="none"/>
      <path d="M4.3 -0.55 L4.4 0.0 4.1 0.5 3.4 1.0 2.65 1.15 Q2.4 1.15 2.65 0.75 L3.15 0.25 3.35 -0.2 2.85 -0.95 3.0 -1.1 3.1 -1.1 3.75 -0.95 4.3 -0.55" fill="#020000" fill-rule="evenodd" stroke="none"/>
      <path d="M2.65 1.5 L3.1 1.45 3.8 1.5 Q4.3 1.65 4.15 2.15 L4.05 2.7 3.55 3.25 2.85 3.4 2.25 3.25 Q2.65 3.0 2.8 2.9 L3.3 2.3 3.05 1.8 2.8 1.7 2.65 1.5" fill="#020000" fill-rule="evenodd" stroke="none"/>
      <path d="M2.35 5.5 Q3.05 5.25 3.05 4.8 L2.5 4.25 Q2.3 4.05 2.55 3.95 L2.6 3.9 3.85 4.15 Q4.25 4.45 4.1 4.8 3.85 5.5 3.4 5.7 2.8 6.2 2.1 6.0 L1.75 5.7 2.35 5.5" fill="#020000" fill-rule="evenodd" stroke="none"/>
      <path d="M-5.95 -0.7 L-6.15 0.0 -5.75 0.5 -5.25 0.75 -5.4 0.95 -5.65 1.0 -6.4 0.95 -7.15 0.55 -7.35 -0.05 -7.15 -0.45 -6.85 -0.75 -6.1 -1.1 -5.4 -1.1 -5.65 -1.0 -5.95 -0.7" fill="#020000" fill-rule="evenodd" stroke="none"/>
      <path d="M-6.1 1.45 L-6.4 1.55 -6.6 2.0 -6.65 2.45 -6.5 2.8 -6.25 3.05 -6.15 3.25 -6.35 3.4 Q-6.9 3.4 -7.2 3.05 L-7.5 2.3 -7.35 1.8 -6.95 1.5 -6.35 1.3 -6.1 1.3 Q-5.75 1.3 -6.0 1.45 L-6.1 1.45" fill="#020000" fill-rule="evenodd" stroke="none"/>
      <path d="M-7.95 4.3 Q-7.5 3.75 -6.95 3.75 L-6.7 3.75 -6.6 3.8 -7.1 4.15 -7.4 4.7 Q-7.6 5.15 -6.85 5.45 L-6.5 5.45 -6.25 5.55 -6.45 5.75 -7.25 5.95 Q-7.9 5.95 -8.1 5.55 L-8.2 5.0 -7.95 4.3" fill="#020000" fill-rule="evenodd" stroke="none"/>
      <path d="M2.35 -0.2 L2.0 0.2 1.3 0.0 0.6 -0.35 -0.1 -0.55 Q-0.6 -0.8 -0.1 -0.95 L1.15 -0.85 Q2.15 -0.85 2.35 -0.5 2.55 -0.3 2.35 -0.2" fill="#ffffff" fill-rule="evenodd" stroke="none"/>
      <path d="M0.5 1.5 L1.4 1.8 Q1.85 1.95 2.05 2.2 L2.05 2.25 1.55 2.3 0.15 1.9 -1.2 1.75 -1.6 1.45 -1.2 1.4 -0.65 1.4 0.5 1.5" fill="#ffffff" fill-rule="evenodd" stroke="none"/>
      <path d="M0.15 3.65 L1.0 3.95 1.8 4.55 1.85 4.55 1.15 4.65 0.75 4.5 0.5 4.4 -0.6 4.0 -1.75 3.8 -1.9 3.7 -1.95 3.7 -0.9 3.55 0.15 3.65" fill="#ffffff" fill-rule="evenodd" stroke="none"/>
      <path d="M2.25 11.5 L0.65 11.75 -1.15 11.75 -1.75 11.8 -2.4 11.75 -2.7 11.8 -3.0 11.75 -3.6 11.75 -5.25 11.3 -3.0 11.3 -0.9 11.3 1.75 11.2 2.5 11.25 2.25 11.5" fill="#ffffff" fill-rule="evenodd" stroke="none"/>
      <path d="M7.0 -0.75 L6.4 0.25 5.6 0.8 4.55 0.45 4.8 0.05 4.8 -0.45 4.65 -0.85 4.35 -1.25 4.4 -1.25 Q5.0 -1.25 5.8 -1.95 6.9 -2.85 7.15 -1.95 L7.0 -0.75" fill="#f4a506" fill-rule="evenodd" stroke="none"/>
      <path d="M-7.65 -0.45 L-8.25 -0.05 -8.7 -1.2 -8.65 -1.85 -8.2 -2.45 -7.6 -2.75 -6.75 -2.75 -6.7 -2.35 -6.45 -1.85 -6.25 -1.75 Q-5.9 -1.55 -6.6 -1.35 L-7.2 -1.05 -7.5 -0.75 -7.65 -0.45" fill="#f4a506" fill-rule="evenodd" stroke="none"/>
      <path d="M2.75 9.2 L2.55 9.5 2.55 9.15 2.35 8.7 1.8 8.0 Q1.25 7.3 0.25 6.95 L-1.75 6.65 -4.65 6.55 -7.1 6.95 -7.95 7.45 -8.75 8.05 -8.75 7.9 -8.65 7.7 -8.35 7.4 -7.6 6.9 -5.85 6.2 -3.75 6.0 -1.6 5.9 0.25 6.2 0.9 6.4 1.55 6.8 Q2.25 7.25 2.8 8.2 L2.9 8.9 2.75 9.2" fill="#961504" fill-rule="evenodd" stroke="none"/>
      <path d="M1.3 8.55 Q1.3 9.65 -1.2 9.65 L-3.35 9.4 -4.45 8.75 -4.7 8.2 Q-4.7 7.8 -4.4 7.65 -3.5 6.8 -3.2 7.15 L-2.75 7.05 -2.15 7.05 -0.85 7.2 0.8 7.8 Q1.3 8.15 1.3 8.55" fill="#d62c16" fill-rule="evenodd" stroke="none"/>
      <path d="M0.4 8.5 Q0.1 9.0 -0.85 9.0 -2.5 9.0 -2.85 8.25 L-1.95 7.45 -1.95 7.4 Q-0.65 7.45 0.15 7.9 0.6 8.2 0.4 8.5" fill="#ed473a" fill-rule="evenodd" stroke="none"/>
    </g>
  </defs>
</svg>
